X: 27880
T: Mountain Belle
R: hornpipe
M: 4/4
K: Fmajor
|:(3cde|f2 A2 c2 dc|B2 E2 G2 g>a|b>a g>f e>d c>B|A>B c>d c2 (3cde|
f2 A2 c2 dc|B2 E2 G2 g>a|b>a g>f e>c d>e|f2 f2 f2:|
|:z2|e2 g2 e2 dc|b2 a2 f4|b2 a2 f2 ef|a2 g2 e4|
e2 g2 e2 dc|b2 a2 f4|b2 a2 d2 ed|c2 e2 c2:|
|:F_E|D2 F2 B3c|B2 A2 c4|g2 c2 g2 c2|g2 f2 d4|
D2 F2 B3c|B2 A2 c4|g2 c2 g2 c2|B2 b2 b2:|

